svgs/light/truck-field-un.svg

<svg xmlns="http://www.w3.org/2000/svg" viewBox="0 0 640 512"><!--! Font Awesome Pro 6.5.1 by @fontawesome - https://fontawesome.com License - https://fontawesome.com/license (Commercial License) Copyright 2023 Fonticons, Inc. --><path d="M96 64C78.3 64 64 78.3 64 96v32V288v64h5.5c13.2-37.3 48.7-64 90.5-64s77.4 26.7 90.5 64H352V224 192 96c0-17.7-14.3-32-32-32H96zM0 160c0-17.7 14.3-32 32-32V96c0-35.3 28.7-64 64-64H320c32.6 0 59.6 24.4 63.5 56h53.4c17.7 0 33.9 9.7 42.3 25.2L521.6 192H544c35.3 0 64 28.7 64 64v96h16c8.8 0 16 7.2 16 16s-7.2 16-16 16H608 576c0 53-43 96-96 96s-96-43-96-96H352 256c0 53-43 96-96 96s-96-43-96-96H32 16c-8.8 0-16-7.2-16-16s7.2-16 16-16H32V288c-17.7 0-32-14.3-32-32V160zm384-40v72H485.2L451 128.4c-2.8-5.2-8.2-8.4-14.1-8.4H384zm0 232h5.5c13.2-37.3 48.7-64 90.5-64s77.4 26.7 90.5 64H576V256c0-17.7-14.3-32-32-32H512.3c-.2 0-.4 0-.6 0H384V352zM253.3 135.1l34.7 52V144c0-8.8 7.2-16 16-16s16 7.2 16 16v96c0 7.1-4.6 13.3-11.4 15.3s-14-.6-17.9-6.4l-34.7-52V240c0 8.8-7.2 16-16 16s-16-7.2-16-16V144c0-7.1 4.6-13.3 11.4-15.3s14 .6 17.9 6.4zM128 144v64c0 8.8 7.2 16 16 16s16-7.2 16-16V144c0-8.8 7.2-16 16-16s16 7.2 16 16v64c0 26.5-21.5 48-48 48s-48-21.5-48-48V144c0-8.8 7.2-16 16-16s16 7.2 16 16zm96 240A64 64 0 1 0 96 384a64 64 0 1 0 128 0zm256 64a64 64 0 1 0 0-128 64 64 0 1 0 0 128z"/></svg>

<svg xmlns="http://www.w3.org/2000/svg" viewBox="0 0 640 512"><!--! Font Awesome Pro 6.1.1 by @fontawesome - https://fontawesome.com License - https://fontawesome.com/license (Commercial License) Copyright 2022 Fonticons, Inc. --><path d="M288 187.2V144C288 135.2 295.2 128 304 128C312.8 128 320 135.2 320 144V240C320 247.1 315.4 253.3 308.6 255.3C301.9 257.4 294.6 254.7 290.7 248.9L256 196.8V240C256 248.8 248.8 256 240 256C231.2 256 224 248.8 224 240V144C224 136.9 228.6 130.7 235.4 128.7C242.1 126.6 249.4 129.3 253.3 135.1L288 187.2zM128 208C128 216.8 135.2 224 144 224C152.8 224 160 216.8 160 208V144C160 135.2 167.2 128 176 128C184.8 128 192 135.2 192 144V208C192 234.5 170.5 256 144 256C117.5 256 96 234.5 96 208V144C96 135.2 103.2 128 112 128C120.8 128 128 135.2 128 144V208zM0 160C0 142.3 14.33 128 32 128V96C32 60.65 60.65 32 96 32H320C352.6 32 379.6 56.43 383.5 88H436.9C454.5 88 470.8 97.7 479.1 113.2L521.6 192H544C579.3 192 608 220.7 608 256V352H624C632.8 352 640 359.2 640 368C640 376.8 632.8 384 624 384H576C576 437 533 480 480 480C426.1 480 384 437 384 384H256C256 437 213 480 160 480C106.1 480 64 437 64 384H16C7.164 384 0 376.8 0 368C0 359.2 7.164 352 16 352H32V288C14.33 288 0 273.7 0 256V160zM64 96V352H69.46C82.64 314.7 118.2 288 160 288C201.8 288 237.4 314.7 250.5 352H352V96C352 78.33 337.7 64 320 64H96C78.33 64 64 78.33 64 96zM384 120V192H485.2L450.1 128.4C448.2 123.2 442.8 120 436.9 120H384zM384 352H389.5C402.6 314.7 438.2 288 480 288C521.8 288 557.4 314.7 570.5 352H576V256C576 238.3 561.7 224 544 224H512.3C512.1 224 511.9 224 511.7 224H384L384 352zM160 320C124.7 320 96 348.7 96 384C96 419.3 124.7 448 160 448C195.3 448 224 419.3 224 384C224 348.7 195.3 320 160 320zM480 448C515.3 448 544 419.3 544 384C544 348.7 515.3 320 480 320C444.7 320 416 348.7 416 384C416 419.3 444.7 448 480 448z"/></svg>
